T: Kilnamona
M: 4/4
L: 1/8
K: Fmaj
d>GB>d G>AB>c | d2 c2 A2 B2 | c2 A2 e3 d | e2 d>c B>G (3ABc | d>GB>d G>AB>c | d2 c2 A2 B2 | C2 A2 e2 d2 | G4- G :|b2 g>b b>ag>b | a2 f>a a>ge>f | (3gag f>g e>gd>g | e>gd>G B>A (3Bcd |b2 g>b b>a (3gab | (3aba f>a a>ge>f | (3gag f>g (3efg d2 | g4- g  :|dGBd GABc | d2 c2 A2 B2 | c2 A2 e3 d | e2 dc BG (3ABc | dGBd GABc | d2 c2 A2 B2 | C2 A2 e2 d2 | G4- G :|b2 gb bagb | a2 fa agef | (3gag fg egdg | egdG BA (3Bcd |b2 gb bagb | a2 fa agef | (3gag fg (3efg d2 | g4- g  :|
